X: 36356
T: Sean McCusker's Farewell
R: jig
M: 6/8
K: Dminor
D|:A,DF DCD|FGA GAc|dcA GFG|AFD CA,C|
A,DF DCD|FGA GAc|dcA GFG|1 AFC D2D:|2 AFC D2A||
|:dcd ged|cdf gfg|aba g2 a|gfd g2 a|
bag fed|cdf gfg|aba gfg|1 afc d2 A:|2 afc def||
|:ged cAG|FDC FGA|BAG FEF|GEC B,2f|
ged cAG|FDC FGA|BAG FEF|1 GEC Def:|2 GEC D3||

